src/24/actions/insert-horizontal-rule.svg

<svg xmlns="http://www.w3.org/2000/svg" viewBox="0 0 24 24"><path d="M4 4v7h16V4H4zm1 1h1v2h1V5h3v2h1V5h3v2h1V5h4v5H5V5zm12 10v2h-2v1h2v2h1v-2h2v-1h-2v-2h-1z" fill="currentColor" color="#5d656b"/></svg>

<svg xmlns="http://www.w3.org/2000/svg" viewBox="0 0 24 24">
  <defs id="defs3051">
    <style type="text/css" id="current-color-scheme">
      .ColorScheme-Text {
        color:#5d656b;
      }
      </style>
  </defs>
 <path style="fill:currentColor;fill-opacity:1;stroke:none" 
     d="M 4 4 L 4 11 L 5 11 L 20 11 L 20 10 L 20 5 L 20 4 L 5 4 L 4 4 z M 5 5 L 6 5 L 6 7 L 7 7 L 7 5 L 10 5 L 10 7 L 11 7 L 11 5 L 14 5 L 14 7 L 15 7 L 15 5 L 19 5 L 19 10 L 5 10 L 5 5 z M 17 15 L 17 17 L 15 17 L 15 18 L 17 18 L 17 20 L 18 20 L 18 18 L 20 18 L 20 17 L 18 17 L 18 15 L 17 15 z "
     class="ColorScheme-Text"
     />
</svg>
